X:672
T:Staten Island
M:4/4
L:1/8
K:D
AG|:"D"FDFG A2 Bc|defe dcBA|"G"B2 GB "D"A2 FA|"A"G2 E2 E2 AG|
"D"FDFG A2 Bc|defe dcBA|"D"d2 d2 "A"efge|1 "D"f2 d2 d2 AG:|2 "D"f2 d2 d2 fg
|:"D"a2 fa "A"g2 eg|"D"fedf "A"ecAB|"C"=c2 =c2 efge|=c2 =c2 efge|
"D"agfa "A"gfeg|"D"fedf "A"ecBA|\
"D"dcdf "A"efge|1 "D"f2 d2 d2 fg:|2 "D" f2 d2 d2|]
